packages/kaspersky-hexa-ui-icons/src/iconsSVGs/24/NewB2CPortfolioColor.svg

<svg width="24" height="24" viewBox="0 0 24 24" fill="none" xmlns="http://www.w3.org/2000/svg">
<path d="M2.59033 7.89208V16.1046C2.59033 16.9039 3.01713 17.6391 3.70606 18.0371L10.9012 22.1619C11.5834 22.5531 12.4168 22.5531 13.099 22.1619L20.2942 18.0371C20.9831 17.6425 21.4099 16.9039 21.4099 16.1046V7.89208C21.4099 7.09275 20.9831 6.35751 20.2942 5.96291L13.099 1.83812C12.4168 1.44689 11.5834 1.44689 10.9012 1.83812L3.70606 5.96291C3.01713 6.35751 2.59033 7.09613 2.59033 7.89208Z" fill="url(#paint0_linear_20816_2275)"/>
<path d="M12 2.51613C12.2032 2.51613 12.4064 2.58387 12.6097 2.68548L19.858 6.81774C20.2306 7.02097 20.4677 7.42742 20.4677 7.86774V16.1323C20.4677 16.5726 20.2306 16.979 19.858 17.1823L12.6097 21.3145C12.4064 21.4161 12.2032 21.4839 12 21.4839C11.7968 21.4839 11.5935 21.4161 11.3903 21.3145L4.14192 17.1823C3.76934 16.979 3.53224 16.5726 3.53224 16.1323V7.86774C3.53224 7.42742 3.76934 7.02097 4.14192 6.81774L11.3903 2.68548C11.5935 2.58387 11.7968 2.51613 12 2.51613ZM12 1.5C11.6274 1.5 11.221 1.60161 10.8822 1.80484L3.63386 5.9371C2.95644 6.34355 2.51611 7.08871 2.51611 7.86774V16.1323C2.51611 16.9452 2.95644 17.6565 3.63386 18.0629L10.8822 22.1952C11.221 22.3984 11.5935 22.5 12 22.5C12.4064 22.5 12.779 22.3984 13.1177 22.1952L20.3661 18.0629C21.0774 17.6565 21.4839 16.9113 21.4839 16.1323V7.86774C21.4839 7.05484 21.0435 6.34355 20.3661 5.9371L13.1177 1.80484C12.779 1.60161 12.3726 1.5 12 1.5Z" fill="black"/>
<path d="M9.28981 16.0645H10.814V6.91935H9.28981V16.0645ZM15.7592 9.29032H13.8624L11.593 12.3048V13.05L13.8624 16.0645H15.7592L13.0834 12.6774L15.7592 9.29032Z" fill="black"/>
<defs>
<linearGradient id="paint0_linear_20816_2275" x1="-3.32679" y1="16.8983" x2="16.2491" y2="-3.51853" gradientUnits="userSpaceOnUse">
<stop stop-color="#3DE8CA"/>
<stop offset="1" stop-color="#4DFF88"/>
</linearGradient>
</defs>
</svg>

<svg xmlns="http://www.w3.org/2000/svg" width="24" height="24" fill="none" viewBox="0 0 24 24"><path fill="url(#a)" d="M2.5903 7.892v8.2126c0 .7993.4268 1.5345 1.1158 1.9325l7.1951 4.1248a2.205 2.205 0 0 0 2.1978 0l7.1952-4.1248c.6889-.3946 1.1157-1.1332 1.1157-1.9325V7.8921c0-.7994-.4268-1.5346-1.1157-1.9292L13.099 1.8381a2.205 2.205 0 0 0-2.1978 0L3.7061 5.963c-.689.3946-1.1158 1.1332-1.1158 1.9292"/><path fill="#000" d="M12 2.5161c.2032 0 .4064.0678.6097.1694l7.2483 4.1322c.3726.2033.6097.6097.6097 1.05v8.2646c0 .4403-.2371.8467-.6097 1.05l-7.2483 4.1322c-.2033.1016-.4065.1694-.6097.1694s-.4065-.0678-.6097-.1694l-7.2484-4.1322c-.3726-.2033-.6097-.6097-.6097-1.05V7.8677c0-.4403.2371-.8467.6097-1.05l7.2484-4.1322c.2032-.1016.4065-.1694.6097-.1694M12 1.5c-.3726 0-.779.1016-1.1178.3048L3.6339 5.9371c-.6775.4064-1.1178 1.1516-1.1178 1.9306v8.2646c0 .8129.4403 1.5242 1.1178 1.9306l7.2483 4.1323Q11.3903 22.5 12 22.5t1.1177-.3048l7.2484-4.1323c.7113-.4064 1.1178-1.1516 1.1178-1.9306V7.8677c0-.8129-.4404-1.5242-1.1178-1.9306l-7.2484-4.1323C12.779 1.6016 12.3726 1.5 12 1.5"/><path fill="#000" d="M9.2898 16.0645h1.5242V6.9194H9.2898zm6.4694-6.7742h-1.8968l-2.2694 3.0145v.7452l2.2694 3.0145h1.8968l-2.6758-3.3871z"/><defs><linearGradient id="a" x1="-3" x2="16" y1="17" y2="-4" gradientUnits="userSpaceOnUse"><stop stop-color="#3de8ca"/><stop offset="1" stop-color="#4dff88"/></linearGradient></defs></svg>
